svgs/phantom_rose_2.svg

<svg width="192" height="192" viewBox="0 0 192 192" fill="none" xmlns="http://www.w3.org/2000/svg">
<path d="M61.8514 96C61.8514 86.3336 60.2319 76.7842 58.4639 69.2394C56.3392 60.172 54 54 54 54C54 54 60.172 56.3392 69.2394 58.4639C76.7842 60.2319 86.3335 61.8514 96 61.8514M58.4639 122.761C56.3392 131.828 54 138 54 138C54 138 60.172 135.661 69.2394 133.536C76.7842 131.768 86.3336 130.149 96 130.149L106.819 106.819L130.149 96C130.149 86.3336 131.768 76.7842 133.536 69.2394C135.661 60.172 138 54 138 54C138 54 131.828 56.3392 122.761 58.4639C115.216 60.2319 105.666 61.8514 96 61.8514M96 61.8514L106.819 85.1813L130.149 96M96 61.8514L85.1813 85.1813L61.8514 96M96 130.149L85.1813 106.819L61.8514 96M61.8514 96C61.8514 105.666 60.2319 115.216 58.4639 122.761M58.4639 69.2394C41.9122 84.1332 22 96 22 96C22 96 41.9122 107.867 58.4639 122.761M69.2394 58.4639C84.1331 41.9121 96 22 96 22C96 22 107.867 41.9122 122.761 58.4639M133.536 69.2394C150.088 84.1331 170 96 170 96C170 96 166.353 98.1733 160.884 101.827C157.021 104.407 152.249 107.727 147.21 111.54C146.478 112.094 145.741 112.658 145 113.232M69.2394 133.536C84.1332 150.088 96 170 96 170C96 170 98.1733 166.353 101.827 160.884C104.408 157.021 107.727 152.249 111.54 147.21C112.094 146.478 112.658 145.741 113.232 145" stroke="black" stroke-width="12" stroke-linecap="round" stroke-linejoin="round"/>
<path d="M132.421 133H140.158M140.158 133H147.895H154.526H162.263M140.158 133L135.737 170M128 170H135.737M135.737 170H143.474H150.105H157.842M162.263 133H170M162.263 133L157.842 170M157.842 170H165.579" stroke="black" stroke-width="12" stroke-linecap="round"/>
</svg>

<svg xmlns="http://www.w3.org/2000/svg" width="192" height="192" fill="none" viewBox="0 0 192 192"><path stroke="#000" stroke-linecap="round" stroke-linejoin="round" stroke-width="12" d="M61.851 96c0-9.666-1.62-19.216-3.387-26.76C56.339 60.171 54 54 54 54s6.172 2.34 15.24 4.464C76.783 60.232 86.333 61.85 96 61.85m-37.536 60.91C56.339 131.828 54 138 54 138s6.172-2.339 15.24-4.464c7.544-1.768 17.094-3.387 26.76-3.387l10.819-23.33L130.149 96c0-9.666 1.619-19.216 3.387-26.76C135.661 60.171 138 54 138 54s-6.172 2.34-15.239 4.464C115.216 60.232 105.666 61.85 96 61.85m0 0 10.819 23.33L130.149 96M96 61.851l-10.819 23.33L61.851 96M96 130.149l-10.819-23.33L61.851 96m0 0c0 9.666-1.62 19.216-3.387 26.761m0-53.522C41.912 84.133 22 96 22 96s19.912 11.867 36.464 26.761m10.775-64.297C84.133 41.912 96 22 96 22s11.867 19.912 26.761 36.464m10.775 10.775C150.088 84.133 170 96 170 96s-3.647 2.173-9.116 5.827c-3.863 2.58-8.635 5.9-13.674 9.713q-1.098.831-2.21 1.692m-75.76 20.304C84.132 150.088 96 170 96 170s2.173-3.647 5.827-9.116c2.581-3.863 5.9-8.635 9.713-13.674q.831-1.098 1.692-2.21"/><path stroke="#000" stroke-linecap="round" stroke-width="12" d="M132.421 133h7.737m0 0h22.105m-22.105 0-4.421 37M128 170h7.737m0 0h22.105m4.421-37H170m-7.737 0-4.421 37m0 0h7.737"/></svg>
